svg/music_accidental_natural.svg

<svg xmlns="http://www.w3.org/2000/svg" viewBox="0 0 24 24"><path d="M10 8.75V3.5H8v14l6-2.25v5.25h2v-14zm4 4.5-4 1.5v-4l4-1.5z"/></svg>

<?xml version="1.0" encoding="UTF-8"?><!DOCTYPE svg PUBLIC "-//W3C//DTD SVG 1.1//EN" "http://www.w3.org/Graphics/SVG/1.1/DTD/svg11.dtd"><svg xmlns="http://www.w3.org/2000/svg" xmlns:xlink="http://www.w3.org/1999/xlink" version="1.1" id="mdi-music-accidental-natural" width="24" height="24" viewBox="0 0 24 24"><path d="M10 8.75V3.5H8V17.5L14 15.25V20.5H16V6.5L10 8.75M14 13.25L10 14.75V10.75L14 9.25V13.25Z" /></svg>
